X:1
M:6/8
K:Dm
F/2E/2|DEF E2D|d2e f2g|agf edc|AcA GEC|
DFA A2B|dBA GBd|edd edc|dcB A2:|
e/2a/2|gfg efe|ega e2g|ege ecB|A3 d3|
dee efe|dfg def|edB ABc|dBA A2:|